svg/black/bts.svg

<svg xmlns="http://www.w3.org/2000/svg" width="32" height="32" viewBox="0 0 32 32">
  <path fill-rule="evenodd" d="M16,32 C7.163444,32 0,24.836556 0,16 C0,7.163444 7.163444,0 16,0 C24.836556,0 32,7.163444 32,16 C32,24.836556 24.836556,32 16,32 Z M11,13.2023917 L11,18.4026254 L14.8659303,18.4026254 C14.9223379,18.0895258 15.041674,17.7992421 15.2098878,17.5462723 L11,13.2023917 Z M11,12.0337335 L15.7761925,16.9619432 C16.0213591,16.7883755 16.3026886,16.6652411 16.6061302,16.6070382 L16.6061302,10.1389643 L11,5 L11,12.0337335 Z M21.5276148,22.8964224 C22.3704013,21.9030961 22.910656,20.6295852 23,19.2289915 L19.1472059,19.2289915 C19.0907983,19.542091 18.9714622,19.8323748 18.8032484,20.0853446 L21.5276148,22.8964224 Z M20.9613101,23.4807515 L18.2369437,20.6696737 C17.9917771,20.8432414 17.7104475,20.9663758 17.407006,21.0245787 L17.407006,25 C18.7643965,24.9078123 19.9986242,24.3503623 20.9613101,23.4807515 Z M11.0131362,19.2289915 C11.1024802,20.6295852 11.6427349,21.9030961 12.4855214,22.8964224 L15.2098878,20.0853446 C15.041674,19.8323748 14.9223379,19.542091 14.8659303,19.2289915 L11.0131362,19.2289915 Z M23,18.4026254 C22.910656,17.0020316 22.3704013,15.7285208 21.5276148,14.7351944 L18.8032484,17.5462723 C18.9714622,17.7992421 19.0907983,18.0895258 19.1472059,18.4026254 L23,18.4026254 Z M13.0518261,23.4807515 C14.014512,24.3503623 15.2487397,24.9078123 16.6061302,25 L16.6061302,21.0245787 C16.3026886,20.9663758 16.0213591,20.8432414 15.7761925,20.6696737 L13.0518261,23.4807515 Z M20.9613101,14.1508654 C19.9986242,13.2812546 18.7643965,12.7238045 17.407006,12.6316169 L17.407006,16.6070382 C17.7104475,16.6652411 17.9917771,16.7883755 18.2369437,16.9619432 L20.9613101,14.1508654 Z"/>
</svg>

<svg xmlns="http://www.w3.org/2000/svg" width="32" height="32"><path fill-rule="evenodd" d="M16 32C7.163 32 0 24.837 0 16S7.163 0 16 0s16 7.163 16 16-7.163 16-16 16zm-5-18.798v5.2h3.866c.056-.312.176-.603.344-.856L11 13.202zm0-1.168l4.776 4.928a2.13 2.13 0 0 1 .83-.355v-6.468L11 5v7.034zm10.528 10.862A6.276 6.276 0 0 0 23 19.23h-3.853a2.274 2.274 0 0 1-.344.856l2.725 2.811zm-.567.585l-2.724-2.811a2.13 2.13 0 0 1-.83.355V25a5.887 5.887 0 0 0 3.554-1.52zm-9.948-4.252c.09 1.4.63 2.674 1.473 3.667l2.724-2.81a2.274 2.274 0 0 1-.344-.857h-3.853zM23 18.403a6.276 6.276 0 0 0-1.472-3.668l-2.725 2.811c.168.253.288.544.344.857H23zm-9.948 5.078A5.887 5.887 0 0 0 16.606 25v-3.975a2.13 2.13 0 0 1-.83-.355l-2.724 2.81zm7.91-9.33a5.887 5.887 0 0 0-3.555-1.52v3.976c.303.058.585.181.83.355l2.724-2.811z"/></svg>
